icons/media/playpause-24.svg

<svg width="24" height="24" viewBox="0 0 24 24" fill="none" xmlns="http://www.w3.org/2000/svg">
<path d="M21.25 4C21.6642 4 22 4.33579 22 4.75V19.25C22 19.6642 21.6642 20 21.25 20C20.8358 20 20.5 19.6642 20.5 19.25V4.75C20.5 4.33579 20.8358 4 21.25 4Z" fill="black"/>
<path fill-rule="evenodd" clip-rule="evenodd" d="M2.4174 4.07779C2.67303 3.95131 2.97828 3.98076 3.205 4.15379L12.705 11.4038C12.8909 11.5457 13 11.7661 13 12C13 12.2339 12.8909 12.4543 12.705 12.5962L3.205 19.8462C2.97828 20.0192 2.67303 20.0487 2.4174 19.9222C2.16177 19.7957 2 19.5352 2 19.25V4.75001C2 4.4648 2.16177 4.20427 2.4174 4.07779ZM3.5 17.7342L11.0138 12L3.5 6.26583V17.7342Z" fill="black"/>
<path d="M15.25 4C15.6642 4 16 4.33579 16 4.75001V19.25C16 19.6642 15.6642 20 15.25 20C14.8358 20 14.5 19.6642 14.5 19.25V4.75001C14.5 4.33579 14.8358 4 15.25 4Z" fill="black"/>
</svg>

<svg xmlns="http://www.w3.org/2000/svg" width="24" height="24"><path d="M21.25 4a.75.75 0 01.75.75v14.5a.75.75 0 01-1.5 0V4.75a.75.75 0 01.75-.75z"/><path fill-rule="evenodd" d="M2.417 4.078a.75.75 0 01.788.076l9.5 7.25a.75.75 0 010 1.192l-9.5 7.25A.75.75 0 012 19.25V4.75a.75.75 0 01.417-.672zM3.5 17.734L11.014 12 3.5 6.266v11.468z"/><path d="M15.25 4a.75.75 0 01.75.75v14.5a.75.75 0 01-1.5 0V4.75a.75.75 0 01.75-.75z"/></svg>
